svgs/thin/person-dolly-empty.svg

<svg xmlns="http://www.w3.org/2000/svg" viewBox="0 0 512 512"><!--! Font Awesome Pro 6.3.0 by @fontawesome - https://fontawesome.com License - https://fontawesome.com/license (Commercial License) Copyright 2023 Fonticons, Inc. --><path d="M80 104c28.71 0 52-23.29 52-52C132 23.29 108.7 0 80.01 0C51.3 0 28 23.29 28 51.1C28 80.71 51.29 104 80 104zM80 16c19.85 0 36 16.15 36 35.1C116 71.85 99.85 88 80 88S44 71.85 44 51.1C44 32.15 60.15 16 80 16zM501.1 384.3l-154.6 40.1C337.9 400.7 314.1 384 288 384c-2.738 0-5.346 .4727-7.992 .8066l-56.26-218.8c-1.125-4.282-5.312-6.813-9.75-5.751c-4.281 1.109-6.843 5.469-5.75 9.751L222.1 224L166.7 223.9L133.4 162.2c-11-21.12-32.84-34.25-56.59-34.25h-28.75C21.5 127.9 0 149.4 0 175.9v103c0 18.75 8.253 36.38 22.38 48.63l76.01 65.14l14.13 92.51C113.4 490.4 121.2 512 143.2 512c1.906 0 3.939-.1619 6.062-.5115c17.5-2.875 29.25-19.38 26.38-36.75l-14.13-92.51c-2.5-14.88-10.13-28.38-21.5-38.13L96.01 306.3V228.1l22.96 42.97c5.566 10.41 16.41 16.92 28.22 16.92l91.39 .0366l25.87 100.6C240.8 397.1 223.1 420.1 223.1 448c0 35.35 28.65 64 63.1 64C323.3 512 352 483.3 352 448c0-2.779-.4746-5.426-.8184-8.111l154.8-40.14c4.281-1.109 6.844-5.484 5.75-9.749C510.7 385.7 506.2 383.2 501.1 384.3zM147.2 271.1c-5.904 0-11.33-3.252-14.11-8.459L110.1 220.6C107.3 215.3 101.8 212.1 96 212.1c-2.605 0-5.275 .6387-7.801 2.014C82.93 216.1 80 222.9 80 228.9v77.49c0 4.67 2.039 9.105 5.582 12.14l44.01 37.75c8.529 7.311 14.26 17.48 16.1 28.39l14.16 92.69c.6953 4.203-.291 8.426-2.775 11.89c-2.486 3.469-6.184 5.762-10.41 6.457C145.4 495.9 144.3 496 143.2 496c-11.33 0-14.86-13.18-14.89-13.18c0 0 0-.0039 0 0l-14.12-92.5c-.5781-3.789-2.498-7.244-5.406-9.736L32.86 315.5C22.14 306.2 16 292.9 16 278.1V175.1c0-17.67 14.33-32 32-32h28.75c17.86 0 34.07 9.824 42.42 25.86l33.38 61.75c2.795 5.17 8.199 8.393 14.08 8.393L226.3 240l8.227 31.99H147.2zM288 496c-26.47 0-48-21.53-48-48s21.53-48 48-48s48 21.53 48 48S314.5 496 288 496zM56 400c-4.418 0-8 3.582-8 8v72c0 8.832-6.812 15.78-15.59 15.99C23.38 496.2 16 487.1 16 478.9V360C16 355.6 12.42 352 8 352S0 355.6 0 360v118.3c0 17.36 13.08 32.83 30.42 33.65c18.48 .873 33.59-13.7 33.59-31.97L64 408C64 403.6 60.42 400 56 400z"/></svg>

<svg xmlns="http://www.w3.org/2000/svg" viewBox="0 0 512 512"><!-- Font Awesome Pro 6.0.0-alpha2 by @fontawesome - https://fontawesome.com License - https://fontawesome.com/license (Commercial License) --><path d="M80 104C108.709 104 132 80.707 132 51.998C132 23.293 108.709 0 80 0C51.293 0 28 23.293 28 51.998C28 80.707 51.293 104 80 104ZM80 16C99.85 16 116 32.148 116 51.998C116 71.85 99.85 88 80 88S44 71.85 44 51.998C44 32.148 60.15 16 80 16ZM501.998 384.25L347.361 424.348C337.941 400.736 314.975 384 288 384C285.262 384 282.654 384.473 280.008 384.807L223.75 166.001C222.625 161.719 218.438 159.188 214 160.25C209.719 161.359 207.156 165.719 208.25 170.001L222.135 224L166.625 223.996L133.25 162.246C122.25 141.121 100.5 127.998 76.75 127.998H48C21.49 127.998 0 149.488 0 175.998V278.994C0 297.744 8.25 315.369 22.375 327.617L98.375 392.742L112.5 485.24C113.42 490.416 121.223 512 143.209 512C145.115 512 147.127 511.838 149.25 511.488C166.75 508.613 178.5 492.115 175.625 474.74L161.5 382.242C159 367.367 151.375 353.867 140 344.117L96 306.369V228.119L118.959 271.078C124.525 281.492 135.373 287.994 147.18 287.994H238.592L264.461 388.604C240.791 397.994 224 420.986 224 448C224 483.346 252.654 512 288 512C323.348 512 352 483.346 352 448C352 445.221 351.525 442.574 351.182 439.889L505.998 399.75C510.279 398.641 512.842 394.266 511.748 390.001C510.654 385.719 506.217 383.188 501.998 384.25ZM147.182 271.994C141.277 271.994 135.852 268.742 133.068 263.535L110.111 220.578C107.281 215.281 101.801 212.117 96.002 212.117C93.396 212.117 90.727 212.756 88.201 214.131C82.934 216.998 80 222.883 80 228.881V306.367C80 311.037 82.039 315.473 85.582 318.512L129.588 356.266C138.117 363.576 143.848 373.744 145.684 384.658L159.84 477.352C160.535 481.555 159.549 485.777 157.064 489.244C154.578 492.713 150.881 495.006 146.654 495.701C145.443 495.9 144.297 496 143.209 496C131.881 496 128.354 482.818 128.316 482.818C128.316 482.818 128.316 482.82 128.316 482.824L114.191 390.326C113.613 386.537 111.693 383.082 108.785 380.59L32.857 315.529C22.145 306.24 16 292.924 16 278.994V175.998C16 158.324 30.326 143.998 48 143.998H76.75C94.613 143.998 110.824 153.822 119.174 169.854L152.549 231.604C155.344 236.773 160.748 239.996 166.625 239.996L226.25 240L234.477 271.994H147.182ZM288 496C261.533 496 240 474.467 240 448S261.533 400 288 400S336 421.533 336 448S314.467 496 288 496ZM56 400C51.582 400 48 403.582 48 408V480.002C48 488.834 41.188 495.783 32.414 495.994C23.385 496.211 16 487.971 16 478.939V360C16 355.582 12.418 352 8 352S0 355.582 0 360V478.312C0 495.668 13.082 511.143 30.418 511.963C48.896 512.836 64 498.275 64 480.002V408C64 403.582 60.418 400 56 400Z"/></svg>
